X: 1580
T: Jack's The Lad
B: australian traditional tunes wiki
M:C
L:1/8
R: Step Dance
Q: 1/4=100
K:D
V:1 
dc|:"D"d2D2D2 AG|FA dcd2cd|"E7"e2e2ef ed|"A7"cB A2A2ef|
"G"g2b2ba gf|"Em"gf ed "A7"ed cB|"A7"AB cd ef ag|1"D"f2d2d2dc:|2"D"f2d2d2A2||
|:"D"FA dA FA dc|"G"B2G2G2BA|"E7"^GB eB GB eB|"A7"c2A2A2ef|
"G"g2b2ba gf|"Em"gf ed ed cB|"A7"AB cd ef ag|1"D"f2d2d2A2:|2"D"f2d2d2||
% abcbook-tune_id 6342d53afd1fbc188e07d321


% abcbook-boost 0
% abcbook-tablature 
% abcbook-transpose 
% abcbook-lastupdated 1665324372275
% abcbook-soundfonts 
% abcbook-repeats 1
% NFF Book 2007

